X:1164
T:Cape Breton March.
C:_____ Mc.____ 42nd. Regt.
M:C
L:1/8
Q:1/2=66
I: :: ::
Z:Jack Campin * www.campin.me.uk * 2009
K:D
AB/c/|d2 d>d d3   f|  e>d```e>f d3 e|  f>e``````f>g      f>a```g>f     |e2 e>e e2
fg   |a>fd>a g>ec>g|(3fed (3gfe a3 A|  B>c``````d>e      f>a   a/g/f/e/|d2 d>d d2:|
A>f  |e2 A>A A2 g>e|  f2    d>d d2af|(3egf    (3fag    (3gaf (3efd     |e2 e>e e2
AB/c/|d>cd>f e>de>g|  f>e```f>b a3 A|  B/c/d/e/ d/e/f/g/ fa    a/g/f/e/|d2 d>d d2:|

